X:1
T:Svingedans
T:(FMK M 107 bild 11)
T:"Hvarför skulle du den lampan slokna"
T:efter Per Henriksson 
R:Svingedans
O:Sövestad, Skåne
B:Folkmusikkommissionen
Z:ABC-transkribering av Åke Persson
M:3/4
Q:1/4=108
K:D
L:1/8
A2 |: Ac d2 de | fg f2 df | ag e2 cc | dBBA A2 |  Ac d2 de | fg f2 df | ag e2 cc | dB A2 z2 :|
|: fg a2 A2 | gf f2 ee | AA d2 fa | ge d2 Ad | fg a2 A2 | gf f2 ee | AA d2 fa | ge d2 z2 :|

